X:1
T: Up on Your Toes
C:Bruce Shawyer
R:Jig
Q:180
K:D
M:6/8
L:1/16
A2|d4D2 D2F2A2|d4D2 D4A2|d2e2f2 e2d2c2|d6 d4d2|e4E2 E2G2B2|e4E2 E4e2|g2f2e2 e2d2B2|A6 A2B2c2|
d4D2 D2F2A2|d4D2 D4A2|d2e2f2 e2d2c2|d6 d2e2f2|g4B2 B4g2|f4A2 A4f2|g2f2e2 e2d2c2|d6 d4c2|
B4d2 d2e2f2|B4d2 d2e2f2|d2e2f2 f2e2d2|B6 B4B2|A4c2 c2d2e2|A4c2 c2d2e2|e2d2c2 e2d2c2|A6 A4c2|
B4d2 d2e2f2|B4d2 d2e2f2|d2e2f2 f2e2d2|B6 B2d2e2|f2d2f2 e2c2e2|d2B2d2 c2B2A2|B2c2d2 c2d2e2|d6 d4||
